packages/match-logos/mono/svg/elocal.svg

<svg fill="none" height="26" viewBox="0 0 160 26" width="160" xmlns="http://www.w3.org/2000/svg"><path d="m28.145 19.565h11.96v5.98h-18.85v-24.505h6.825v18.525zm33.475-3.51v.065c0 5.395-4.42 9.88-10.595 9.88-6.045 0-10.465-4.42-10.465-9.815v-.065c0-5.395 4.42-9.88 10.53-9.88s10.53 4.42 10.53 9.815zm-6.5.065c0-2.34-1.755-4.29-4.095-4.29-2.405 0-3.965 1.95-3.965 4.225v.065c0 2.34 1.69 4.29 4.03 4.29 2.405 0 4.03-1.95 4.03-4.225zm17.875 4.29c-2.275 0-3.835-1.885-3.835-4.29v-.065c0-2.34 1.56-4.225 3.77-4.225 1.56 0 2.6.78 3.575 2.015l4.55-3.38c-1.625-2.535-4.225-4.225-8.19-4.225-6.045 0-10.205 4.485-10.205 9.88v.065c0 5.33 4.225 9.815 10.01 9.815 4.16 0 6.695-1.755 8.45-4.355l-4.485-3.25c-1.04 1.3-2.015 2.015-3.64 2.015zm25.09-11.765c1.43 1.43 2.08 3.38 2.08 6.045v10.855h-6.63v-2.015c-1.365 1.43-3.12 2.405-5.655 2.405-3.64 0-6.37-2.08-6.37-5.85v-.065c0-3.965 2.99-5.98 7.475-5.98 1.755 0 3.51.325 4.615.715v-.325c0-2.015-1.235-3.12-3.835-3.12-2.015 0-3.575.39-5.33 1.04l-1.365-4.68c2.145-.845 4.42-1.495 7.735-1.495 3.445.13 5.785.975 7.28 2.47zm-4.42 9.165c-.715-.26-1.69-.52-2.665-.52-1.95 0-3.055.91-3.055 2.34v.065c0 1.3.975 2.08 2.34 2.08 1.95 0 3.38-1.235 3.38-3.12zm9.035 7.735h6.695v-25.545h-6.695zm10.14-.13h3.315v-3.315h-3.315zm10.465-2.47c-1.69 0-2.795-1.365-2.795-3.12v-.065c0-1.69 1.105-3.055 2.665-3.055 1.105 0 1.82.455 2.535 1.235l1.885-2.08c-1.04-1.17-2.34-1.885-4.42-1.885-3.38 0-5.785 2.665-5.785 5.85v.065c0 3.185 2.405 5.785 5.72 5.785 2.21 0 3.445-.845 4.485-2.08l-1.82-1.885c-.715.78-1.43 1.235-2.47 1.235zm16.965-3.185c0 3.25-2.535 5.915-5.98 5.915s-5.915-2.6-5.915-5.785v-.065c0-3.25 2.535-5.85 5.98-5.85 3.38 0 5.915 2.6 5.915 5.785zm-3.12.065c0-1.69-1.17-3.12-2.925-3.12-1.82 0-2.86 1.43-2.86 3.055v.065c0 1.69 1.17 3.12 2.925 3.12 1.82 0 2.86-1.43 2.86-3.12zm17.94-5.85c-1.495 0-2.665.65-3.64 1.755-.585-1.105-1.69-1.755-3.12-1.755-1.56 0-2.535.845-3.25 1.82v-1.625h-3.12v11.245h3.12v-6.305c0-1.495.715-2.275 1.885-2.275s1.82.78 1.82 2.275v6.305h3.12v-6.305c0-1.495.715-2.275 1.885-2.275s1.82.78 1.82 2.275v6.305h3.12v-7.28c.065-2.73-1.3-4.16-3.64-4.16zm-135.46 1.885c0 .455 0 .91-.065 1.43h-13c.52 2.145 2.08 3.185 4.225 3.185 1.69 0 2.925-.585 4.355-2.015l3.77 3.12c-1.885 2.405-4.55 3.965-8.45 3.965-6.11 0-10.465-4.095-10.465-10.14v-.065c0-5.655 4.095-10.205 9.815-10.205 6.76 0 9.815 4.94 9.815 10.725zm-6.37-2.145c-.26-2.145-1.56-3.51-3.445-3.51-1.82 0-3.055 1.365-3.38 3.51z" fill="#1f304c"/></svg>

<svg width="160" height="26" viewBox="0 0 160 26" fill="none" xmlns="http://www.w3.org/2000/svg">
<path d="M28.145 19.565H40.105V25.545H21.255V1.04H28.08V19.565H28.145ZM61.62 16.055V16.12C61.62 21.515 57.2 26 51.025 26C44.98 26 40.56 21.58 40.56 16.185V16.12C40.56 10.725 44.98 6.24 51.09 6.24C57.2 6.24 61.62 10.66 61.62 16.055ZM55.12 16.12C55.12 13.78 53.365 11.83 51.025 11.83C48.62 11.83 47.06 13.78 47.06 16.055V16.12C47.06 18.46 48.75 20.41 51.09 20.41C53.495 20.41 55.12 18.46 55.12 16.185V16.12ZM72.995 20.41C70.72 20.41 69.16 18.525 69.16 16.12V16.055C69.16 13.715 70.72 11.83 72.93 11.83C74.49 11.83 75.53 12.61 76.505 13.845L81.055 10.465C79.43 7.93 76.83 6.24 72.865 6.24C66.82 6.24 62.66 10.725 62.66 16.12V16.185C62.66 21.515 66.885 26 72.67 26C76.83 26 79.365 24.245 81.12 21.645L76.635 18.395C75.595 19.695 74.62 20.41 72.995 20.41ZM98.085 8.645C99.515 10.075 100.165 12.025 100.165 14.69V25.545H93.535V23.53C92.17 24.96 90.415 25.935 87.88 25.935C84.24 25.935 81.51 23.855 81.51 20.085V20.02C81.51 16.055 84.5 14.04 88.985 14.04C90.74 14.04 92.495 14.365 93.6 14.755V14.43C93.6 12.415 92.365 11.31 89.765 11.31C87.75 11.31 86.19 11.7 84.435 12.35L83.07 7.67C85.215 6.825 87.49 6.175 90.805 6.175C94.25 6.305 96.59 7.15 98.085 8.645ZM93.665 17.81C92.95 17.55 91.975 17.29 91 17.29C89.05 17.29 87.945 18.2 87.945 19.63V19.695C87.945 20.995 88.92 21.775 90.285 21.775C92.235 21.775 93.665 20.54 93.665 18.655V17.81ZM102.7 25.545H109.395V0H102.7V25.545ZM112.84 25.415H116.155V22.1H112.84V25.415ZM123.305 22.945C121.615 22.945 120.51 21.58 120.51 19.825V19.76C120.51 18.07 121.615 16.705 123.175 16.705C124.28 16.705 124.995 17.16 125.71 17.94L127.595 15.86C126.555 14.69 125.255 13.975 123.175 13.975C119.795 13.975 117.39 16.64 117.39 19.825V19.89C117.39 23.075 119.795 25.675 123.11 25.675C125.32 25.675 126.555 24.83 127.595 23.595L125.775 21.71C125.06 22.49 124.345 22.945 123.305 22.945ZM140.27 19.76C140.27 23.01 137.735 25.675 134.29 25.675C130.845 25.675 128.375 23.075 128.375 19.89V19.825C128.375 16.575 130.91 13.975 134.355 13.975C137.735 13.975 140.27 16.575 140.27 19.76ZM137.15 19.825C137.15 18.135 135.98 16.705 134.225 16.705C132.405 16.705 131.365 18.135 131.365 19.76V19.825C131.365 21.515 132.535 22.945 134.29 22.945C136.11 22.945 137.15 21.515 137.15 19.825ZM155.09 13.975C153.595 13.975 152.425 14.625 151.45 15.73C150.865 14.625 149.76 13.975 148.33 13.975C146.77 13.975 145.795 14.82 145.08 15.795V14.17H141.96V25.415H145.08V19.11C145.08 17.615 145.795 16.835 146.965 16.835C148.135 16.835 148.785 17.615 148.785 19.11V25.415H151.905V19.11C151.905 17.615 152.62 16.835 153.79 16.835C154.96 16.835 155.61 17.615 155.61 19.11V25.415H158.73V18.135C158.795 15.405 157.43 13.975 155.09 13.975ZM19.63 15.86C19.63 16.315 19.63 16.77 19.565 17.29H6.565C7.085 19.435 8.645 20.475 10.79 20.475C12.48 20.475 13.715 19.89 15.145 18.46L18.915 21.58C17.03 23.985 14.365 25.545 10.465 25.545C4.355 25.545 0 21.45 0 15.405V15.34C0 9.685 4.095 5.135 9.815 5.135C16.575 5.135 19.63 10.075 19.63 15.86ZM13.26 13.715C13 11.57 11.7 10.205 9.815 10.205C7.995 10.205 6.76 11.57 6.435 13.715H13.26Z" fill="#1F304C"/>
</svg>
